src/assets/MISSION_T.svg

<svg width="170" height="35" viewBox="0 0 170 35" fill="none" xmlns="http://www.w3.org/2000/svg">
<path d="M0.36 34V0.591998H7.032L11.544 10.288L15.864 20.32H16.056L20.232 10.288L24.648 0.591998H31.608V34H24.264V18.112L24.12 18.064L21.096 24.832L18.84 29.536H13.176L10.824 24.592L7.896 18.064L7.752 18.208V34H0.36Z" fill="#D3A7E0"/>
<path d="M36.1309 34V0.591998H43.5229V34H36.1309ZM45.2002 29.68L49.4722 24.016C52.5922 26.8 55.8083 27.52 59.2163 27.52C62.4323 27.52 64.2563 25.984 64.2563 24.208C64.2563 22.576 63.7283 20.944 59.6962 20.56C53.3602 19.936 47.3602 18.064 47.3602 10.576C47.3602 3.472 53.4563 0.303999 58.9282 0.303999C63.0083 0.303999 67.1843 1.072 70.7363 3.424L67.3283 9.328C64.1603 7.312 60.8963 7.072 59.1203 7.072C55.4723 7.072 54.7043 8.848 54.7043 10.192C54.7043 12.304 56.1923 12.88 61.7123 13.744C67.2323 14.608 72.0323 16.96 72.0323 23.728C72.0323 30.688 65.3603 34.288 58.8323 34.288C54.3203 34.288 49.6162 33.568 45.2002 29.68ZM71.7802 29.68L76.0522 24.016C79.1722 26.8 82.3882 27.52 85.7962 27.52C89.0122 27.52 90.8362 25.984 90.8362 24.208C90.8362 22.576 90.3082 20.944 86.2762 20.56C79.9402 19.936 73.9402 18.064 73.9402 10.576C73.9402 3.472 80.0362 0.303999 85.5082 0.303999C89.5882 0.303999 93.7642 1.072 97.3162 3.424L93.9082 9.328C90.7402 7.312 87.4762 7.072 85.7002 7.072C82.0522 7.072 81.2842 8.848 81.2842 10.192C81.2842 12.304 82.7722 12.88 88.2922 13.744C93.8122 14.608 98.6122 16.96 98.6122 23.728C98.6122 30.688 91.9402 34.288 85.4122 34.288C80.9002 34.288 76.1962 33.568 71.7802 29.68ZM101.48 34V0.591998H108.872V34H101.48ZM112.134 21.232V13.36C112.134 6.448 116.358 0.351998 125.046 0.351998C133.11 0.351998 138.15 5.872 138.15 13.36V21.232C138.15 29.2 132.966 34.288 125.046 34.288C116.358 34.288 112.134 28.192 112.134 21.232ZM130.614 21.76V12.688C130.614 9.76 128.55 7.264 124.998 7.264C121.302 7.264 119.574 9.952 119.574 12.688V21.76C119.574 24.64 121.302 27.376 124.998 27.376C128.55 27.376 130.614 24.928 130.614 21.76ZM141.559 34V0.591998H148.135L155.143 10.816L161.575 20.848L161.671 20.8V0.591998H169.063V34H162.487L153.991 21.712L149.047 13.744L148.951 13.792V34H141.559Z" fill="#FBEDFF"/>
</svg>

<svg width="170" height="35" fill="none" xmlns="http://www.w3.org/2000/svg"><path d="M.36 34V.592h6.672l4.512 9.696 4.32 10.032h.192l4.176-10.032L24.648.592h6.96V34h-7.344V18.112l-.144-.048-3.024 6.768-2.256 4.704h-5.664l-2.352-4.944-2.928-6.528-.144.144V34H.36z" fill="#D3A7E0"/><path d="M36.13 34V.592h7.393V34H36.13zm9.07-4.32 4.272-5.664c3.12 2.784 6.336 3.504 9.744 3.504 3.216 0 5.04-1.536 5.04-3.312 0-1.632-.528-3.264-4.56-3.648-6.336-.624-12.336-2.496-12.336-9.984C47.36 3.472 53.456.304 58.928.304c4.08 0 8.256.768 11.808 3.12l-3.408 5.904c-3.168-2.016-6.432-2.256-8.208-2.256-3.648 0-4.416 1.776-4.416 3.12 0 2.112 1.488 2.688 7.008 3.552 5.52.864 10.32 3.216 10.32 9.984 0 6.96-6.672 10.56-13.2 10.56-4.512 0-9.216-.72-13.632-4.608zm26.58 0 4.272-5.664c3.12 2.784 6.336 3.504 9.744 3.504 3.216 0 5.04-1.536 5.04-3.312 0-1.632-.528-3.264-4.56-3.648-6.336-.624-12.336-2.496-12.336-9.984C73.94 3.472 80.036.304 85.508.304c4.08 0 8.256.768 11.808 3.12l-3.408 5.904C90.74 7.312 87.476 7.072 85.7 7.072c-3.648 0-4.416 1.776-4.416 3.12 0 2.112 1.488 2.688 7.008 3.552 5.52.864 10.32 3.216 10.32 9.984 0 6.96-6.672 10.56-13.2 10.56-4.512 0-9.216-.72-13.632-4.608zm29.7 4.32V.592h7.392V34h-7.392zm10.654-12.768V13.36c0-6.912 4.224-13.008 12.912-13.008 8.064 0 13.104 5.52 13.104 13.008v7.872c0 7.968-5.184 13.056-13.104 13.056-8.688 0-12.912-6.096-12.912-13.056zm18.48.528v-9.072c0-2.928-2.064-5.424-5.616-5.424-3.696 0-5.424 2.688-5.424 5.424v9.072c0 2.88 1.728 5.616 5.424 5.616 3.552 0 5.616-2.448 5.616-5.616zM141.559 34V.592h6.576l7.008 10.224 6.432 10.032.096-.048V.592h7.392V34h-6.576l-8.496-12.288-4.944-7.968-.096.048V34h-7.392z" fill="#FBEDFF"/></svg>
